X:1
T:Psalm 94
T:A minor         Israel Holdroyd, 1724
T:John Hopkins, 1562 Old Version (Psalm 92)     86. 86. (C. M.)                   
T:Transcribed from The Spiritual Man's Companion, 1724
T:No Copyright.  Transcribed from Suffolk Harmony, 1786.
T:No Copyright.  Transcribed from Suffolk Harmony, 1786.
Z:No Copyright.  Transcribed from Suffolk Harmony, 1786.
%%score [ 1 2 3 4 ]
L:1/8
Q:1/4=120
M:3/4
K:C
V:1 treble nm="Tr." snm="Tr."
V:2 treble nm="C." snm="C."
V:3 treble-8 nm="T." snm="T."
V:4 bass nm="B." snm="B."
V:1
 z2 | z6 | z6 | z6 | z4 B2 | (c2 B2) A2 | (GF E2) ^G2 | A4 z2 | z6 | z6 | z6 | z4 ^G2 | %12
w: ||||1. To|praise * the|high- * * est|Lord,||||To|
w: ||||2. And|thou * dost|reign * * there-|fore,||||Both|
 (A2 B2) c2 | (BA G2) F2 | E4 z2 | z6 | z6 | z6 | z4 B2 | (c2 B2) cG | A2 B4 | c4 c2 | c4 B2 | %23
w: sing * with|one * * ac-|cord,||||Be-|fore * the *|day be|light, And|to de-|
w: now * and|ev- * * er-|more.||||And|up- * right *|in his|will, He|is my|
 (A2 B2) cB | A4 A2 | G4 B2 | (A2 ^G2) A2 | B2 ^G4 | A6 |] %29
w: clare * his *|truth a-|broad, When|it * doth|draw to|night.|
w: rock, * my *|hope and|trust, In|him * there|is no|ill.|
V:2
 z2 | z6 | z6 | z6 | z6 | z6 | z6 | z4 EF | (G2 F2) E2 | D4 E2 | (F2 E2) D2 | E4 z2 | z4 z2 | %13
w: |||||||And *|to * thy|name, O|thou * most|high,||
w: |||||||In *|glo- * ry|and great|ma- * jes-|ty,||
 z4 z2 | z4 z2 | z6 | z6 | z6 | z4 EF | G4 G2 | F2 D4 | E4 EF | G4 GF | E4 ED | (C2 D2) E2 | %25
w: |||||Be- *|fore the|day be|light, * *||||
w: |||||And *|up- right|in his|will, * *||||
 D4 ED | (C2 D2) E2 | F2 E4 | E6 |] %29
w: ||||
w: ||||
V:3
 AB | (c2 B2) A2 | e4 d2 | (c2 B2) A2 | B4 z2 | z6 | z6 | z4 e2 | d4 c2 | B4 c2 | A4 A2 | ^G4 z2 | %12
w: 1. It *|is * a|thing both|good * and|meet|||And|to thy|name, O|thou most|high,|
w: 2. But *|thou * art|migh- ty,|Lord * most|high,|||In|glo- ry|and great|ma- jes-|ty,|
 z4 z2 | z4 z2 | z4 e2 | (d2 c2) B2 | (c2 d2) e2 | (A2 d2) dc | B4 z2 | z6 | z6 | z4 cd | %22
w: ||To|show * the|kind- * ness|of * the *|Lord,|||And *|
w: ||To|show * that|God * is|good * and *|just,|||He *|
 (e2 dc) B2 | (c2 BA) ^G2 | (A2 B2) c2 | B4 ^G2 | (A2 B2) e2 | dc B4 | A6 |] %29
w: to * * de-|clare * * his|truth * a-|broad, When|it * doth|draw * to|night.|
w: is * * my|rock, * * my|hope * and|trust, In|him * there|is * no|ill.|
V:4
 A,,2 | (A,2 G,2) F,2 | E,4 G,2 | (C,2 D,2) F,2 | E,4 E,2 | (A,,2 B,,2) C,D, | E,4 E,2 | A,,4 C,2 | %8
w: ||||* 1. To|praise * the *|high- est|Lord, *|
w: ||||* 2. And|thou * dost *|reign there-|fore, *|
 G,4 C2 | G,4 E,2 | (D,2 E,2) F,2 | E,4 (E,D, | A,2) ^G,2 A,2 | B,4 B,,2 | E,4 E,F, | G,4 ^G,2 | %16
w: ||||||||
w: ||||||||
 (A,2 G,F,) E,2 | (F,E, D,2) D,2 | E,4 E,D, | (C,2 G,2) E,2 | F,2 G,4 | C,4 C,2 | (C2 B,A,) G,2 | %23
w: ||* Be- *|fore * the|day be|light. *||
w: ||* And *|up- * right|in his|will, *||
 (A,2 G,F,) E,2 | (F,2 E,D,) C,2 | G,4 E,2 | %26
w: |||
w: |||
"_________________________________________________________\nEdited by B. C. Johnston, 2018.\nMeasures 12-15 re-barred to be like the rest of the piece.\n\nThis tune also goes under other names, including St. David's. Wantage New, St. Peter's, St. John's,Newbury, All Saints, Lincoln, \nMaidstone, Harwich, Woolwich, and Epsom." (F,2 E,D,) C,2 | %27
w: |
w: |
 D,2 E,4 | A,,6 |] %29
w: ||
w: ||

